img/ola2.svg

<svg xmlns="http://www.w3.org/2000/svg" viewBox="0 0 1440 320"><path fill="#322C2B" d="m0 192 9.6 21.3C19.2 235 38 277 58 272c18.8-5 38-59 57-96 19.4-37 39-59 58-37.3 19 21.3 38 85.3 57 96 19.6 10.3 39-31.7 58-48 19.2-15.7 38-5.7 58 5.3 18.8 11 38 21 57-5.3 19.4-26.7 39-90.7 58-85.4 19 5.7 38 79.7 57 96 19.6 15.7 39-26.3 58-58.6C595.2 107 614 85 634 96c18.8 11 38 53 57 42.7 19.4-10.7 39-74.7 58-69.4 19 5.7 38 79.7 57 96 19.6 15.7 39-26.3 58-58.6 19.2-31.7 38-53.7 58-16 18.8 37.3 38 133.3 57 176 19.4 42.3 39 32.3 58-16 19-47.7 38-133.7 57-133.4 19.6-.3 39 85.7 58 106.7 19.2 21 38-21 58-64 18.8-43 38-85 57-106.7 19.4-21.3 39-21.3 58 10.7s38 96 57 106.7c19.6 10.3 39-31.7 48-53.4l10-21.3V0H0Z"/></svg>

<?xml version="1.0" standalone="no"?><svg xmlns="http://www.w3.org/2000/svg" viewBox="0 0 1440 320"><path fill=" #322C2B" fill-opacity="1" d="M0,192L9.6,213.3C19.2,235,38,277,58,272C76.8,267,96,213,115,176C134.4,139,154,117,173,138.7C192,160,211,224,230,234.7C249.6,245,269,203,288,186.7C307.2,171,326,181,346,192C364.8,203,384,213,403,186.7C422.4,160,442,96,461,101.3C480,107,499,181,518,197.3C537.6,213,557,171,576,138.7C595.2,107,614,85,634,96C652.8,107,672,149,691,138.7C710.4,128,730,64,749,69.3C768,75,787,149,806,165.3C825.6,181,845,139,864,106.7C883.2,75,902,53,922,90.7C940.8,128,960,224,979,266.7C998.4,309,1018,299,1037,250.7C1056,203,1075,117,1094,117.3C1113.6,117,1133,203,1152,224C1171.2,245,1190,203,1210,160C1228.8,117,1248,75,1267,53.3C1286.4,32,1306,32,1325,64C1344,96,1363,160,1382,170.7C1401.6,181,1421,139,1430,117.3L1440,96L1440,0L1430.4,0C1420.8,0,1402,0,1382,0C1363.2,0,1344,0,1325,0C1305.6,0,1286,0,1267,0C1248,0,1229,0,1210,0C1190.4,0,1171,0,1152,0C1132.8,0,1114,0,1094,0C1075.2,0,1056,0,1037,0C1017.6,0,998,0,979,0C960,0,941,0,922,0C902.4,0,883,0,864,0C844.8,0,826,0,806,0C787.2,0,768,0,749,0C729.6,0,710,0,691,0C672,0,653,0,634,0C614.4,0,595,0,576,0C556.8,0,538,0,518,0C499.2,0,480,0,461,0C441.6,0,422,0,403,0C384,0,365,0,346,0C326.4,0,307,0,288,0C268.8,0,250,0,230,0C211.2,0,192,0,173,0C153.6,0,134,0,115,0C96,0,77,0,58,0C38.4,0,19,0,10,0L0,0Z"></path></svg>
